resources/haticons/SVG/filter_frames.svg

<!-- Generated by IcoMoon.io -->
<svg version="1.1" xmlns="http://www.w3.org/2000/svg" width="24" height="24" viewBox="0 0 24 24">
<title>filter_frames</title>
<path d="M18 8.016h-12v9.984h12v-9.984zM20.016 20.016v-14.016h-4.5l-3.469-3.516-3.516 3.516h-4.547v14.016h16.031zM20.016 3.984q0.797 0 1.383 0.609t0.586 1.406v14.016q0 0.797-0.586 1.383t-1.383 0.586h-16.031q-0.797 0-1.383-0.586t-0.586-1.383v-14.016q0-0.797 0.586-1.406t1.383-0.609h4.031l3.984-3.984 3.984 3.984h4.031z"></path>
</svg>

<svg xmlns="http://www.w3.org/2000/svg" width="24" height="24"><path d="M18 8.016H6V18h12V8.016zm2.016 12V6h-4.5l-3.469-3.516L8.531 6H3.984v14.016h16.031zm0-16.032q.797 0 1.383.609t.586 1.406v14.016q0 .797-.586 1.383t-1.383.586H3.985q-.797 0-1.383-.586t-.586-1.383V5.999q0-.797.586-1.406t1.383-.609h4.031L12 0l3.984 3.984h4.031z"/></svg>
